assets/icons/moduleIcons/forum.svg

<svg width="50" height="50" viewBox="0 0 50 50" fill="none" xmlns="http://www.w3.org/2000/svg">
<path d="M38.3699 20C38.3494 22.4511 37.4721 24.8178 35.8899 26.69C34.1077 28.8464 31.8101 30.518 29.2099 31.55C26.291 32.7563 23.1579 33.3584 19.9999 33.32C18.4637 33.3168 16.931 33.1763 15.4199 32.9C13.2178 34.4344 10.7641 35.5716 8.16989 36.26C7.51989 36.42 6.76988 36.56 5.92988 36.68H5.82989C5.62262 36.6687 5.42526 36.5876 5.26989 36.45C5.18644 36.3823 5.11896 36.297 5.07229 36.2002C5.02562 36.1034 5.0009 35.9975 4.99989 35.89C4.98302 35.8449 4.98302 35.7951 4.99989 35.75C4.98572 35.6875 4.98572 35.6225 4.99989 35.56C5.00833 35.5137 5.00833 35.4663 4.99989 35.42V35.28L5.08989 35.14L5.26989 35L5.40989 34.86L5.50989 34.77L6.10989 34.11L6.81989 33.36C7.03544 33.1184 7.22327 32.8534 7.37989 32.57C7.57114 32.2208 7.78842 31.8865 8.02988 31.57C8.28184 31.2211 8.45577 30.8221 8.53989 30.4C6.54549 29.275 4.83512 27.7083 3.53989 25.82C2.22743 23.9547 1.5739 21.7053 1.68255 19.4271C1.79121 17.1489 2.65586 14.9719 4.13989 13.24C5.92272 11.1021 8.20745 9.43925 10.7899 8.39999C13.7089 7.19321 16.8414 6.5878 19.9999 6.61999C23.1582 6.58972 26.2903 7.19506 29.2099 8.39999C31.808 9.43577 34.1048 11.1068 35.8899 13.26C37.4801 15.1471 38.3577 17.5323 38.3699 20V20ZM48.3699 26.64C48.3654 28.7486 47.7126 30.8049 46.4999 32.53C45.209 34.4221 43.4977 35.9896 41.4999 37.11C41.6357 37.5092 41.8029 37.8971 41.9999 38.27C42.185 38.6228 42.4026 38.9576 42.6499 39.27C42.8999 39.59 43.1099 39.84 43.2599 40.02C43.4099 40.2 43.6399 40.47 43.9199 40.82C44.0991 41.055 44.3 41.2726 44.5199 41.47L44.6199 41.56L44.7599 41.7C44.7964 41.7458 44.8267 41.7962 44.8499 41.85C44.8752 41.8995 44.9054 41.9464 44.9399 41.99L44.9899 42.13V42.27C44.9982 42.3297 44.9982 42.3903 44.9899 42.45C44.9999 42.4961 44.9999 42.5439 44.9899 42.59C44.9418 42.8212 44.8271 43.0332 44.6599 43.2C44.5898 43.2758 44.5018 43.3329 44.404 43.3661C44.3062 43.3992 44.2017 43.4075 44.0999 43.39C43.2299 43.26 42.4799 43.12 41.8599 42.97C39.2476 42.284 36.7765 41.1432 34.5599 39.6C33.0547 39.868 31.5287 40.0018 29.9999 40C25.6494 40.1015 21.3684 38.8963 17.7099 36.54C18.7099 36.64 19.4699 36.68 19.9999 36.68C22.7097 36.6873 25.4057 36.293 27.9999 35.51C30.5015 34.7811 32.8664 33.6459 34.9999 32.15C37.0292 30.658 38.7309 28.7657 39.9999 26.59C41.1437 24.5845 41.7274 22.3084 41.6899 20C41.6933 18.6432 41.4876 17.2941 41.0799 16C43.1934 17.1064 45.0187 18.692 46.4099 20.63C47.6942 22.3682 48.3944 24.4688 48.4099 26.63L48.3699 26.64Z" fill="#000"/>
</svg>

<svg xmlns="http://www.w3.org/2000/svg" viewBox="0 0 50 50"><g id="forum"><path id="path1106" fill="#000" d="M38.37,20a10.5,10.5,0,0,1-2.48,6.69,16.62,16.62,0,0,1-6.68,4.86A23.37,23.37,0,0,1,20,33.32a25.76,25.76,0,0,1-4.58-.42,23,23,0,0,1-7.25,3.36c-.65.16-1.4.3-2.24.42h-.1a.92.92,0,0,1-.56-.23A.73.73,0,0,1,5,35.89a.2.2,0,0,1,0-.14.43.43,0,0,1,0-.19.39.39,0,0,0,0-.14l0-.14.09-.14L5.27,35l.14-.14.1-.09.6-.66.71-.75a4.34,4.34,0,0,0,.56-.79,7.93,7.93,0,0,1,.65-1,3,3,0,0,0,.51-1.17,15,15,0,0,1-5-4.58,10.26,10.26,0,0,1,.6-12.58A16.85,16.85,0,0,1,10.79,8.4,23.48,23.48,0,0,1,20,6.62,23.55,23.55,0,0,1,29.21,8.4a16.72,16.72,0,0,1,6.68,4.86A10.54,10.54,0,0,1,38.37,20Zm10,6.64a10.28,10.28,0,0,1-1.87,5.89,14.84,14.84,0,0,1-5,4.58A8,8,0,0,0,42,38.27a6.41,6.41,0,0,0,.65,1c.25.32.46.57.61.75s.38.45.66.8a4.72,4.72,0,0,0,.6.65l.1.09.14.14a.66.66,0,0,1,.09.15.85.85,0,0,0,.09.14l.05.14,0,.14a.65.65,0,0,1,0,.18.33.33,0,0,1,0,.14,1.21,1.21,0,0,1-.33.61.62.62,0,0,1-.56.19c-.87-.13-1.62-.27-2.24-.42a23,23,0,0,1-7.3-3.37A25.84,25.84,0,0,1,30,40a21.76,21.76,0,0,1-12.29-3.46c1,.1,1.76.14,2.29.14a27.43,27.43,0,0,0,8-1.17A23.78,23.78,0,0,0,35,32.15a18.42,18.42,0,0,0,5-5.56A12.88,12.88,0,0,0,41.69,20a13.2,13.2,0,0,0-.61-4,15.29,15.29,0,0,1,5.33,4.63,10.22,10.22,0,0,1,2,6Z"/></g></svg>
